Numix-GalliumOS/16/emblems/emblem-new.svg

<?xml version="1.0" encoding="UTF-8" standalone="no"?>
<svg
   xmlns:dc="http://purl.org/dc/elements/1.1/"
   xmlns:cc="http://creativecommons.org/ns#"
   xmlns:rdf="http://www.w3.org/1999/02/22-rdf-syntax-ns#"
   xmlns:svg="http://www.w3.org/2000/svg"
   xmlns="http://www.w3.org/2000/svg"
   xmlns:sodipodi="http://sodipodi.sourceforge.net/DTD/sodipodi-0.dtd"
   xmlns:inkscape="http://www.inkscape.org/namespaces/inkscape"
   width="16"
   height="16"
   viewBox="0 0 16 16"
   id="svg2"
   version="1.1"
   inkscape:version="0.91 r13725"
   sodipodi:docname="emblem-new.svg">
  <metadata
     id="metadata12">
    <rdf:RDF>
      <cc:Work
         rdf:about="">
        <dc:format>image/svg+xml</dc:format>
        <dc:type
           rdf:resource="http://purl.org/dc/dcmitype/StillImage" />
      </cc:Work>
    </rdf:RDF>
  </metadata>
  <defs
     id="defs10" />
  <sodipodi:namedview
     pagecolor="#ffffff"
     bordercolor="#666666"
     borderopacity="1"
     objecttolerance="10"
     gridtolerance="10"
     guidetolerance="10"
     inkscape:pageopacity="0"
     inkscape:pageshadow="2"
     inkscape:window-width="1366"
     inkscape:window-height="704"
     id="namedview8"
     showgrid="false"
     inkscape:object-nodes="true"
     inkscape:zoom="1"
     inkscape:cx="7.4880558"
     inkscape:cy="8.6500349"
     inkscape:window-x="0"
     inkscape:window-y="27"
     inkscape:window-maximized="1"
     inkscape:current-layer="svg2">
    <inkscape:grid
       type="xygrid"
       id="grid4140" />
  </sodipodi:namedview>
  <path
     style="fill:#fff;stroke:#777;stroke-width:.792"
     d="M 43.605469 24 C 43.605469 34.828125 34.828125 43.605469 24 43.605469 C 13.171875 43.605469 4.394531 34.828125 4.394531 24 C 4.394531 13.171875 13.171875 4.394531 24 4.394531 C 34.828125 4.394531 43.605469 13.171875 43.605469 24 Z "
     transform="scale(.33333)"
     id="path4" />
  <path
     style="fill:#53a93e;fill-opacity:0.94100001"
     d="M 7,4 7,7 4,7 4,9 7,9 7,12 9,12 9,9 12,9 12,7 9,7 9,4 Z"
     id="path6"
     inkscape:connector-curvature="0"
     sodipodi:nodetypes="ccccccccccccc" />
</svg>

<svg xmlns="http://www.w3.org/2000/svg" viewBox="0 0 16 16">
 <path d="m 43.605 24 c 0 10.828 -8.777 19.605 -19.605 19.605 c -10.828 0 -19.605 -8.777 -19.605 -19.605 c 0 -10.828 8.777 -19.605 19.605 -19.605 c 10.828 0 19.605 8.777 19.605 19.605 Z" transform="scale(.33333)" style="fill:#fff;stroke:#777;stroke-width:0.792"/>
 <path d="m 7 4 0 3 -3 0 0 2 3 0 0 3 2 0 0 -3 3 0 0 -2 -3 0 0 -3" style="fill:#53a93e;fill-opacity:0.941"/>
</svg>
